svg/melt.svg

<?xml version="1.0" encoding="UTF-8" standalone="no"?>
<svg width="24px" height="20px" viewBox="0 0 24 20" version="1.1" xmlns="http://www.w3.org/2000/svg" xmlns:xlink="http://www.w3.org/1999/xlink">
    <!-- Generator: Sketch 40 (33762) - http://www.bohemiancoding.com/sketch -->
    <title>melt</title>
    <desc>Created with Sketch.</desc>
    <defs></defs>
    <g id="Page-1" stroke="none" stroke-width="1" fill="none" fill-rule="evenodd">
        <g id="melt" fill="#000000">
            <path d="M20,18 C20,16.8954305 20.8869711,16 21.998291,16 C23.1019167,16 23.9981111,15.1052949 23.9999902,14.0057373 L24,14 L24,20 L20,20 L20,18 Z M0,13.9981014 C0,12.8945804 0.887729645,12 2,12 C3.1045695,12 4,12.8877296 4,14 C4,15.1045695 4.88772964,16 6,16 C7.1045695,16 8,16.8877296 8,18 L8,20 L0,20 L0,13.9981014 Z M16,18.0018986 C16,19.1054196 15.1122704,20 14,20 C12.8954305,20 12,19.1132936 12,18.0018986 L12,13.9981014 C12,12.8945804 11.1122704,12 10,12 C8.8954305,12 8,11.1122704 8,10 C8,8.8954305 7.11227036,8 6,8 C4.8954305,8 4,7.11329365 4,6.00189865 L4,1.99810135 C4,0.894580447 3.11227036,-3.55271368e-15 2,0 C0.8954305,0 2.84217094e-14,0.894705057 3.55271368e-15,2 L0,0 L8,-1.42108547e-14 L8,2 C8,3.1045695 8.88772964,4 10,4 C11.1045695,4 12,4.88772964 12,6 C12,7.1045695 12.8877296,8 14,8 C15.1045695,8 16,7.11227036 16,6 C16,4.8954305 16.8877296,4 18,4 C19.1045695,4 20,3.11227036 20,2 L20,-3.55271368e-15 L24,-3.55271368e-15 L24,6.00189865 C24,7.10541955 23.1122704,8 22,8 C20.8954305,8 20,8.88772964 20,10 C20,11.1045695 19.1122704,12 18,12 C16.8954305,12 16,12.8867064 16,13.9981014 L16,18.0018986 Z" id="Combined-Shape"></path>
        </g>
    </g>
</svg>

<svg width="24" height="20" xmlns="http://www.w3.org/2000/svg"><path d="M20 18c0-1.105.887-2 1.998-2 1.104 0 2-.895 2.002-1.994V14v6h-4v-2ZM0 13.998C0 12.895.888 12 2 12c1.105 0 2 .888 2 2 0 1.105.888 2 2 2 1.105 0 2 .888 2 2v2H0v-6.002Zm16 4.004A1.994 1.994 0 0 1 14 20c-1.105 0-2-.887-2-1.998v-4.004A1.994 1.994 0 0 0 10 12c-1.105 0-2-.888-2-2 0-1.105-.888-2-2-2-1.105 0-2-.887-2-1.998V1.998A1.994 1.994 0 0 0 2 0a2 2 0 0 0-2 2V0h8v2c0 1.105.888 2 2 2 1.105 0 2 .888 2 2 0 1.105.888 2 2 2 1.105 0 2-.888 2-2 0-1.105.888-2 2-2 1.105 0 2-.888 2-2V0h4v6.002A1.994 1.994 0 0 1 22 8c-1.105 0-2 .888-2 2 0 1.105-.888 2-2 2-1.105 0-2 .887-2 1.998v4.004Z" fill="#000" fill-rule="evenodd"/></svg>
